src/icons/heroku.svg

<svg
  viewBox="0 0 144 152"
  xml:space="preserve"
  xmlns="http://www.w3.org/2000/svg"
>
  <path
    d="M117.91 12.242H26.094c-6.338 0-11.477 5.14-11.477 11.477v104.566c0 6.338 5.14 11.477 11.477 11.477h91.814c6.338 0 11.477-5.14 11.477-11.477V23.72c0-6.338-5.14-11.477-11.477-11.477zm-74.6 108.392V95.13l14.346 12.752zm44.632 0v-38.08c-.062-2.977-1.495-6.552-7.97-6.552-12.966 0-27.51 6.521-27.654 6.586L43.31 86.67v-55.3h12.752v36.201c6.366-2.072 15.266-4.321 23.91-4.321 7.882 0 12.6 3.099 15.17 5.699 5.485 5.547 5.56 12.613 5.552 13.429v38.256zm3.188-68.542H78.378c5.012-6.575 8.158-13.495 9.564-20.722h12.752c-.86 7.243-3.797 14.187-9.564 20.722z"
    fill="#6963b9"
  />
</svg>

<svg viewBox="0 0 144 152" xmlns="http://www.w3.org/2000/svg">
  <path
    d="M117.91 12.242H26.094C19.756 12.242 14.617 17.382 14.617 23.719V128.285C14.617 134.623 19.757 139.762 26.094 139.762H117.908C124.246 139.762 129.385 134.622 129.385 128.285V23.72C129.385 17.382 124.245 12.243 117.908 12.243L117.91 12.242ZM43.31 120.634V95.13L57.656 107.882L43.31 120.634ZM87.942 120.634V82.554C87.88 79.577 86.447 76.002 79.972 76.002C67.006 76.002 52.462 82.523 52.318 82.588L43.31 86.67V31.37H56.062V67.571C62.428 65.499 71.328 63.25 79.972 63.25C87.854 63.25 92.572 66.349 95.142 68.949C100.627 74.496 100.702 81.562 100.694 82.378V120.634H87.942ZM91.13 52.092H78.378C83.39 45.517 86.536 38.597 87.942 31.37H100.694C99.834 38.613 96.897 45.557 91.13 52.092Z"
    fill="#6963B9"
  />
</svg>
